X: 33
T: Kesh, The
Z: Easton
S: https://thesession.org/tunes/55#setting53561
R: jig
M: 6/8
L: 1/8
K: Gmaj
|: G3 GAB|ABA ABd|edd gdd|edB dBA|
G3 GAB|ABA ABd|edd gdB|AGF G3:|
|: B3 dBd|ege dBG|B3 dBG|ABA AGA|
B3 dBd| ege dBd|g3 gag|abg fg3:|

%-------------------- TUNE SEPARATOR --------------------%

